docs/images/icons/alarm.svg

<svg width="40.000000" height="40.000000" viewBox="0 0 40 40" fill="none" xmlns="http://www.w3.org/2000/svg" xmlns:xlink="http://www.w3.org/1999/xlink">
	<desc>
			Created with Pixso.
	</desc>
	<defs>
		<clipPath id="clip267_2993">
			<rect id="alarm-line" rx="10.000000" width="39.000000" height="39.000000" transform="translate(0.500000 0.500000)" fill="white" fill-opacity="0"/>
		</clipPath>
	</defs>
	<rect id="alarm-line" rx="10.000000" width="39.000000" height="39.000000" transform="translate(0.500000 0.500000)" fill="#1E1E1E" fill-opacity="1.000000"/>
	<g clip-path="url(#clip267_2993)">
		<path id="Vector" d="M20 28.3333C19.0151 28.3333 18.0398 28.1394 17.1299 27.7625C16.22 27.3855 15.3931 26.8331 14.6968 26.1367C14.0002 25.4402 13.4478 24.6134 13.0708 23.7035C12.6941 22.7935 12.5 21.8183 12.5 20.8333C12.5 19.8484 12.6941 18.8732 13.0708 17.9632C13.4478 17.0533 14.0002 16.2265 14.6968 15.53C15.3931 14.8336 16.22 14.2812 17.1299 13.9043C18.0398 13.5273 19.0151 13.3334 20 13.3334C21.989 13.3334 23.8967 14.1235 25.3032 15.53C26.7097 16.9366 27.5 18.8442 27.5 20.8333C27.5 22.8225 26.7097 24.7301 25.3032 26.1367C23.8967 27.5432 21.989 28.3333 20 28.3333ZM20 26.6667C20.7661 26.6667 21.5247 26.5158 22.2322 26.2227C22.9399 25.9295 23.583 25.4998 24.1248 24.9581C24.6665 24.4165 25.0962 23.7734 25.3892 23.0657C25.6824 22.3579 25.8333 21.5994 25.8333 20.8333C25.8333 20.0673 25.6824 19.3088 25.3892 18.601C25.0962 17.8933 24.6665 17.2502 24.1248 16.7086C23.583 16.1669 22.9399 15.7372 22.2322 15.4441C21.5247 15.1509 20.7661 15 20 15C18.4529 15 16.9692 15.6146 15.8752 16.7086C14.7812 17.8025 14.1667 19.2863 14.1667 20.8333C14.1667 22.3804 14.7812 23.8642 15.8752 24.9581C16.9692 26.0521 18.4529 26.6667 20 26.6667ZM20.8333 20.8333L23.3333 20.8333L23.3333 22.5L19.1667 22.5L19.1667 16.6667L20.8333 16.6667L20.8333 20.8333ZM11.4558 15.235L14.4016 12.2892L15.5808 13.4675L12.6333 16.4142L11.4558 15.235ZM25.5974 12.2892L28.5442 15.235L27.3657 16.4142L24.4192 13.4675L25.5984 12.2892L25.5974 12.2892Z" fill="#BDBDC0" fill-opacity="1.000000" fill-rule="nonzero"/>
	</g>
	<rect id="alarm-line" rx="10.000000" width="39.000000" height="39.000000" transform="translate(0.500000 0.500000)" stroke="#323232" stroke-opacity="1.000000" stroke-width="1.000000"/>
</svg>

<svg width="40" height="40" fill="none" xmlns="http://www.w3.org/2000/svg"><defs><clipPath id="a"><rect rx="10" width="39" height="39" transform="translate(.5 .5)" fill="#fff" fill-opacity="0"/></clipPath></defs><rect rx="10" width="39" height="39" transform="translate(.5 .5)" fill="#1E1E1E"/><g clip-path="url(#a)"><path d="M20 28.333a7.5 7.5 0 1 1 0-15 7.5 7.5 0 0 1 0 15Zm0-1.666A5.833 5.833 0 1 0 20 15a5.833 5.833 0 0 0 0 11.666Zm.833-5.834h2.5V22.5h-4.166v-5.833h1.666v4.166Zm-9.377-5.598 2.946-2.946 1.179 1.178-2.948 2.947-1.177-1.179Zm14.141-2.946 2.947 2.946-1.178 1.18-2.947-2.947 1.18-1.179h-.002Z" fill="#BDBDC0"/></g><rect rx="10" width="39" height="39" transform="translate(.5 .5)" stroke="#323232"/></svg>
